msx/_inc/system.svg

<svg xmlns="http://www.w3.org/2000/svg"><path d="m0 204.888 52.05-204.888h48.267l25.08 89.433 26.025-89.433h45.426l42.585 150.945 103.905-.195c10.905-.108 11.577-22.662-.807-22.656l-60.513-.807c-25.983.249-53.385-27.861-52.05-65.301.279-34.341 30.222-61.383 68.532-61.374l154.338-.138 39.276 53.469 38.328-53.943 63.879.474-70.029 98.424 75.708 106.719-63.546-.198-44.064-61.233-41.919 61.233-64.824-.057 73.818-105.519-32.178-46.845-134.166.195c-14.64.135-14.103 23.169.117 22.737l56.526.867c23.892.153 57.54 24.981 56.703 63.741.363 45.06-40.221 65.646-59.76 64.548l-147.966.195-24.606-92.187-24.606 91.992h-46.71l-25.689-91.521-22.575 91.659z" fill="#fff"/></svg>

<?xml version="1.0" encoding="utf-8"?>
<svg version="1.1" id="svg2" xmlns="http://www.w3.org/2000/svg" xmlns:bx="https://boxy-svg.com">
  <g>
    <path id="path2830" d="M 0 204.888 L 52.05 0 L 100.317 0 L 125.397 89.433 L 151.422 0 L 196.848 0 L 239.433 150.945 L 343.338 150.75 C 354.243 150.642 354.915 128.088 342.531 128.094 L 282.018 127.287 C 256.035 127.536 228.633 99.426 229.968 61.986 C 230.247 27.645 260.19 0.603 298.5 0.612 L 452.838 0.474 L 492.114 53.943 L 530.442 0 L 594.321 0.474 L 524.292 98.898 L 600 205.617 L 536.454 205.419 L 492.39 144.186 L 450.471 205.419 L 385.647 205.362 L 459.465 99.843 L 427.287 52.998 L 293.121 53.193 C 278.481 53.328 279.018 76.362 293.238 75.93 L 349.764 76.797 C 373.656 76.95 407.304 101.778 406.467 140.538 C 406.83 185.598 366.246 206.184 346.707 205.086 L 198.741 205.281 L 174.135 113.094 L 149.529 205.086 L 102.819 205.086 L 77.13 113.565 L 54.555 205.224 L 0 204.888 Z" style="fill: rgb(255, 255, 255);" bx:origin="0 0"/>
  </g>
</svg>
